src/public/images/news-header-menu-logo-small.svg

<svg width="25" height="28" viewBox="0 0 25 28" fill="none" xmlns="http://www.w3.org/2000/svg">
<path d="M12.4646 24.6414L12.2108 24.6314C9.01065 24.5562 5.96734 23.2387 3.73253 20.961C1.49771 18.6833 0.249046 15.6265 0.25392 12.4451C0.25392 5.72253 5.74758 0.252441 12.4988 0.252441C19.2501 0.252441 24.7463 5.72253 24.7463 12.4451C24.7463 15.158 23.7704 17.8433 21.8466 20.4276C20.5993 22.0763 19.1266 23.5439 17.4709 24.7878C17.0141 25.1371 16.5407 25.4676 16.0674 25.7715C14.9279 26.5021 13.7217 27.1242 12.4646 27.6294V24.6414Z" fill="#988CDA"/>
<path d="M12.4988 0.504505C15.6813 0.51085 18.7313 1.77153 20.9797 4.00999C23.2282 6.24844 24.4915 9.28188 24.4925 12.4449C24.4925 15.1023 23.5331 17.7422 21.6422 20.2773C20.41 21.9074 18.9542 23.358 17.3174 24.587C16.8656 24.9314 16.3986 25.2593 15.929 25.5595C14.9096 26.2141 13.8354 26.7804 12.7184 27.2521V24.8771V24.3915L12.2222 24.3802C9.08715 24.308 6.10531 23.0182 3.9156 20.7872C1.7259 18.5562 0.502553 15.5615 0.507709 12.4449C0.507709 5.86108 5.88715 0.504505 12.4988 0.504505ZM12.4988 0C9.20665 0.00523075 6.04903 1.29899 3.70961 3.60115C1.37019 5.90332 0.0372418 9.02863 -0.000635105 12.3004C-0.038512 15.5722 1.22173 18.7272 3.50723 21.0822C5.79274 23.4373 8.91958 24.8029 12.2108 24.8834V28C13.6084 27.4659 14.9467 26.7896 16.2044 25.982C16.6917 25.6709 17.1655 25.3392 17.6257 24.9868C19.2989 23.7256 20.7881 22.24 22.0509 20.5724C23.8186 18.2038 25.0001 15.4429 25.0001 12.4449C25.0016 10.8119 24.6794 9.19456 24.0519 7.68532C23.4245 6.17608 22.504 4.80447 21.3431 3.64883C20.1823 2.49318 18.8037 1.57614 17.2862 0.950064C15.7686 0.323993 14.1419 0.00115889 12.4988 0V0Z" fill="white"/>
<path fill-rule="evenodd" clip-rule="evenodd" d="M12.5001 5.29469C8.5332 5.29469 5.31738 8.49082 5.31738 12.4334C5.31738 16.376 8.5332 19.5722 12.5001 19.5722C16.467 19.5722 19.6829 16.376 19.6829 12.4334C19.6829 8.49082 16.467 5.29469 12.5001 5.29469ZM4.68286 12.4334C4.68286 8.14253 8.18277 4.66406 12.5001 4.66406C16.8175 4.66406 20.3174 8.14253 20.3174 12.4334C20.3174 16.7243 16.8175 20.2028 12.5001 20.2028C8.18277 20.2028 4.68286 16.7243 4.68286 12.4334Z" fill="white"/>
<path d="M16.1437 9.58575C15.4159 8.66543 14.3626 8.05523 13.1982 7.87926V5.12971L15.4394 3.88232C16.564 4.2621 17.6018 4.85968 18.4927 5.64052C18.5079 6.49734 18.5223 7.355 18.5358 8.2135L16.1437 9.58575Z" fill="white"/>
<path d="M15.4634 4.16209C16.4805 4.52062 17.4223 5.06281 18.2413 5.76137C18.254 6.53158 18.2667 7.30221 18.2794 8.07326L16.2019 9.26642C15.4913 8.44236 14.5229 7.8792 13.452 7.66714V5.27705L15.4634 4.16209ZM15.4126 3.61218L12.9443 4.98191V8.10227C13.5663 8.16464 14.1676 8.35879 14.7076 8.67166C15.2477 8.98453 15.714 9.40883 16.075 9.91597L18.7921 8.35705C18.7768 7.41362 18.7612 6.4702 18.7451 5.52678L18.7388 5.51921C17.7772 4.66074 16.6467 4.01007 15.419 3.6084L15.4126 3.61218Z" fill="white"/>
<path d="M16.8071 14.1322C17.2358 13.0561 17.2421 11.8591 16.8249 10.7785L19.2297 9.39746L21.4188 10.6865C21.5387 11.2827 21.5965 11.8896 21.5914 12.4976C21.5878 13.0759 21.5279 13.6525 21.4125 14.2193L19.2043 15.5133L16.8071 14.1322Z" fill="white"/>
<path d="M19.2285 9.69029L21.1929 10.8469C21.2938 11.3914 21.3426 11.9442 21.3389 12.4979C21.3358 13.0223 21.2848 13.5453 21.1866 14.0606L20.7132 14.3368L20.0559 14.7152L19.7196 14.9132L19.2044 15.2134L17.1219 14.0164C17.4694 13.0038 17.4729 11.9058 17.132 10.891L19.2247 9.69029M19.2247 9.10506L16.5051 10.6703C16.7552 11.233 16.8827 11.8419 16.8795 12.457C16.8762 13.0721 16.7421 13.6796 16.4861 14.2397L19.2056 15.8011L20.3122 15.1541L21.6371 14.3784C21.9123 13.1084 21.9149 11.795 21.6447 10.524L19.2335 9.10254L19.2247 9.10506Z" fill="white"/>
<path d="M13.1982 19.7335V16.9853C14.3471 16.8127 15.3888 16.2176 16.117 15.3179L18.5155 16.6939L18.4914 17.829L18.4622 19.2568C17.5799 20.0217 16.5562 20.6085 15.4482 20.9847L13.1982 19.7335Z" fill="white"/>
<path d="M16.169 15.6393L18.254 16.8349L18.2451 17.2133L18.2324 17.8187C18.2324 17.994 18.2235 18.2829 18.2172 18.5755C18.2172 18.7735 18.2096 18.9728 18.2058 19.1367C17.8103 19.4702 17.3856 19.7678 16.9367 20.0259C16.4678 20.2977 15.9746 20.5257 15.4634 20.707L14.4304 20.1306L13.452 19.5857V17.1969C14.5056 16.9894 15.4607 16.4418 16.169 15.6393M16.0421 14.9859C15.6808 15.4823 15.2181 15.8972 14.6842 16.2034C14.1504 16.5097 13.5575 16.7004 12.9443 16.763V19.8821L15.4177 21.2594C16.6339 20.8607 17.7542 20.2166 18.7083 19.3675C18.7159 19.0119 18.7324 18.1857 18.74 17.8301C18.7464 17.5425 18.7591 16.9472 18.7679 16.5448L16.0459 14.9834L16.0421 14.9859Z" fill="white"/>
<path d="M9.56345 20.9885C8.45711 20.6146 7.43436 20.0308 6.55203 19.2694L6.52284 17.8404C6.51523 17.5112 6.50635 17.0836 6.5 16.7052L8.89594 15.3267C9.6255 16.2238 10.667 16.8165 11.8147 16.9877V19.7335L9.56345 20.9885Z" fill="white"/>
<path d="M8.8401 15.6506C9.55215 16.4503 10.5091 16.995 11.5634 17.2007V19.5857L9.53299 20.712C8.53358 20.3601 7.60659 19.831 6.79695 19.1506C6.79695 18.9816 6.79695 18.7975 6.7868 18.6133C6.78045 18.3396 6.77538 18.0634 6.7703 17.8326C6.7703 17.5475 6.75634 17.1868 6.75 16.8463L8.83375 15.6506M8.96066 14.9985L6.24365 16.5587C6.25127 16.9737 6.26142 17.4731 6.26903 17.8452C6.27792 18.298 6.29188 18.9337 6.30076 19.3852C6.78631 19.8151 7.31634 20.1927 7.88198 20.5115C8.42368 20.8214 8.99607 21.075 9.5901 21.2683L12.0711 19.8884V16.7643C11.4568 16.7045 10.8623 16.5163 10.3264 16.212C9.79058 15.9077 9.32557 15.4941 8.96193 14.9985H8.96066Z" fill="white"/>
<path d="M3.58509 14.2215C3.3514 13.0539 3.34924 11.8522 3.57874 10.6837L4.86681 9.92695L5.77798 9.38965L8.17899 10.7644C7.75501 11.8533 7.76136 13.0614 8.19676 14.1459L5.80336 15.5131L3.58509 14.2215Z" fill="white"/>
<path d="M5.77927 9.67849L7.8681 10.8779C7.52176 11.9017 7.52712 13.0107 7.88333 14.0311L5.80465 15.2243L4.8478 14.6643L3.80719 14.0626C3.6956 13.4689 3.64584 12.8654 3.65871 12.2616C3.67017 11.7867 3.71982 11.3134 3.80719 10.8464L4.99628 10.1452L5.78054 9.68227M5.78054 9.09705C4.97216 9.5738 4.16125 10.0506 3.35541 10.5273C3.08993 11.8005 3.09252 13.1146 3.36303 14.3868L5.80592 15.8145L8.51785 14.2518C8.25869 13.6881 8.1233 13.0759 8.12067 12.4562C8.11805 11.8364 8.24825 11.2231 8.50262 10.6572L5.77673 9.09326L5.78054 9.09705Z" fill="white"/>
<path d="M6.47217 8.19795C6.47217 8.19795 6.48867 7.19651 6.4912 7.05651C6.4912 6.75381 6.50897 6.01345 6.51532 5.62624C7.40803 4.84867 8.44714 4.25492 9.57242 3.87939L11.8186 5.1293V7.87633C10.6523 8.04756 9.59586 8.65533 8.86557 9.57525L6.47217 8.19795Z" fill="white"/>
<path d="M9.54699 4.1544L10.5851 4.73206L11.5635 5.27819V7.66323C10.4921 7.87097 9.5216 8.42961 8.80714 9.2499L6.72592 8.05927C6.72592 7.94323 6.72592 7.82341 6.72592 7.70611C6.72592 7.45386 6.73354 7.20161 6.73608 7.06792C6.73608 6.7917 6.75257 6.15224 6.75892 5.74738C7.58017 5.0482 8.5258 4.50792 9.54699 4.1544M9.59902 3.60449C8.36431 4.00141 7.22784 4.65298 6.264 5.51656C6.264 5.85206 6.24496 6.72233 6.23861 7.05783C6.23861 7.32647 6.22339 7.94071 6.21704 8.34683L8.93278 9.90449C9.29558 9.39808 9.76347 8.97492 10.3049 8.66356C10.8463 8.35221 11.4486 8.1599 12.0711 8.09963V4.98179L9.59902 3.60449Z" fill="white"/>
</svg>

<svg xmlns="http://www.w3.org/2000/svg" width="25" height="28" fill="none"><path fill="#988CDA" d="m12.465 24.641-.254-.01a12.282 12.282 0 0 1-8.478-3.67 12.132 12.132 0 0 1-3.48-8.516C.254 5.723 5.749.252 12.5.252s12.247 5.47 12.247 12.193c0 2.713-.976 5.398-2.9 7.983a22.228 22.228 0 0 1-4.375 4.36 21.592 21.592 0 0 1-5.006 2.842V24.64Z"/><path fill="#fff" d="M12.499.505a12.055 12.055 0 0 1 8.48 3.505 11.907 11.907 0 0 1 3.514 8.435c0 2.657-.96 5.297-2.85 7.832a21.918 21.918 0 0 1-4.326 4.31 21.22 21.22 0 0 1-4.599 2.665v-2.86l-.496-.012a12.027 12.027 0 0 1-8.306-3.593 11.881 11.881 0 0 1-3.408-8.342c0-6.584 5.38-11.94 11.99-11.94Zm0-.505a12.56 12.56 0 0 0-8.79 3.601 12.406 12.406 0 0 0-3.71 8.7 12.403 12.403 0 0 0 3.508 8.781 12.556 12.556 0 0 0 8.704 3.801V28a21.782 21.782 0 0 0 5.415-3.013 22.657 22.657 0 0 0 4.425-4.415c1.768-2.368 2.95-5.13 2.95-8.127 0-1.633-.322-3.25-.95-4.76a12.427 12.427 0 0 0-2.708-4.036A12.514 12.514 0 0 0 17.286.95 12.578 12.578 0 0 0 12.5 0Z"/><path fill="#fff" fill-rule="evenodd" d="M12.5 5.295c-3.967 0-7.183 3.196-7.183 7.138 0 3.943 3.216 7.14 7.183 7.14 3.967 0 7.183-3.197 7.183-7.14 0-3.942-3.216-7.138-7.183-7.138Zm-7.817 7.138c0-4.29 3.5-7.769 7.817-7.769s7.817 3.479 7.817 7.77c0 4.29-3.5 7.769-7.817 7.769s-7.817-3.479-7.817-7.77Z" clip-rule="evenodd"/><path fill="#fff" d="M16.144 9.586a4.638 4.638 0 0 0-2.946-1.707V5.13l2.241-1.247a9.002 9.002 0 0 1 3.054 1.759c.015.856.03 1.714.043 2.572l-2.392 1.373Z"/><path fill="#fff" d="M15.463 4.162c1.018.359 1.96.9 2.778 1.6l.038 2.311-2.077 1.193a4.883 4.883 0 0 0-2.75-1.599v-2.39l2.011-1.115Zm-.05-.55-2.469 1.37v3.12a4.392 4.392 0 0 1 3.131 1.814l2.717-1.559c-.015-.943-.03-1.887-.047-2.83l-.006-.008a9.35 9.35 0 0 0-3.32-1.91l-.006.003ZM16.807 14.132a4.59 4.59 0 0 0 .018-3.354l2.405-1.38 2.189 1.289a8.908 8.908 0 0 1-.006 3.533l-2.209 1.293-2.397-1.38Z"/><path fill="#fff" d="m19.229 9.69 1.964 1.157a8.74 8.74 0 0 1-.006 3.214l-.474.276-.657.378-.336.198-.516.3-2.082-1.197a4.859 4.859 0 0 0 .01-3.125l2.093-1.2m0-.586-2.72 1.565a4.343 4.343 0 0 1-.019 3.57l2.72 1.561 1.106-.647 1.325-.776a9.182 9.182 0 0 0 .008-3.854l-2.412-1.421-.008.002ZM13.198 19.733v-2.748a4.641 4.641 0 0 0 2.919-1.667l2.398 1.376-.024 1.135-.029 1.428a9.035 9.035 0 0 1-3.014 1.728l-2.25-1.252Z"/><path fill="#fff" d="m16.169 15.64 2.085 1.195-.009.378-.013.606c0 .175-.008.464-.015.757 0 .197-.007.397-.011.56a8.68 8.68 0 0 1-1.27.89 8.81 8.81 0 0 1-1.473.681l-1.033-.576-.978-.545v-2.39a4.882 4.882 0 0 0 2.717-1.557m-.127-.653a4.392 4.392 0 0 1-3.098 1.777v3.12l2.474 1.376a9.314 9.314 0 0 0 3.29-1.892l.032-1.537.028-1.285-2.722-1.562-.004.003ZM9.563 20.988a9.039 9.039 0 0 1-3.011-1.719l-.03-1.429c-.007-.329-.016-.756-.022-1.135l2.396-1.378a4.645 4.645 0 0 0 2.919 1.66v2.747l-2.252 1.254Z"/><path fill="#fff" d="M8.84 15.65a4.903 4.903 0 0 0 2.723 1.55v2.386l-2.03 1.126a8.79 8.79 0 0 1-2.736-1.561c0-.17 0-.354-.01-.538-.007-.273-.012-.55-.017-.78 0-.285-.014-.646-.02-.987l2.084-1.195m.127-.652-2.717 1.56c.007.415.017.914.025 1.286l.032 1.54c.485.43 1.015.808 1.581 1.127.542.31 1.114.563 1.708.756l2.481-1.38v-3.124a4.396 4.396 0 0 1-1.745-.552c-.535-.304-1-.718-1.364-1.213H8.96ZM3.585 14.222a9.094 9.094 0 0 1-.006-3.538l1.288-.757.911-.537 2.401 1.374a4.596 4.596 0 0 0 .018 3.382l-2.394 1.367-2.218-1.291Z"/><path fill="#fff" d="m5.78 9.678 2.088 1.2a4.85 4.85 0 0 0 .015 3.153l-2.078 1.193-.957-.56-1.04-.601a8.74 8.74 0 0 1 0-3.217l1.188-.7.785-.464m0-.585-2.426 1.43a9.364 9.364 0 0 0 .008 3.86l2.443 1.428 2.712-1.563a4.343 4.343 0 0 1-.015-3.595L5.777 9.093l.004.004ZM6.472 8.198l.02-1.141c0-.303.017-1.044.023-1.43a8.984 8.984 0 0 1 3.057-1.748l2.247 1.25v2.747a4.628 4.628 0 0 0-2.953 1.7L6.472 8.197Z"/><path fill="#fff" d="m9.547 4.154 1.038.578.978.546v2.385A4.889 4.889 0 0 0 8.807 9.25L6.726 8.06v-.354c0-.252.008-.504.01-.638 0-.276.017-.916.023-1.32a8.682 8.682 0 0 1 2.788-1.594m.052-.55a9.23 9.23 0 0 0-3.335 1.913c0 .335-.019 1.205-.025 1.54 0 .27-.016.884-.022 1.29l2.716 1.557A4.392 4.392 0 0 1 12.07 8.1V4.983L9.6 3.604Z"/></svg>
